docs/.gitbook/assets/icon-text-cursor-16@dark.svg

<svg width="32" height="32" viewBox="0 0 16 16" fill="none" xmlns="http://www.w3.org/2000/svg">
<rect x="0" y="0" width="16" height="16" fill="#181c1f"/>
<path fill-rule="evenodd" clip-rule="evenodd" d="M5 1.75C5 1.33579 5.33579 1 5.75 1H6.13795C6.54734 1 6.94377 1.14353 7.25827 1.40561L8 2.02372L8.74173 1.40561C9.05623 1.14353 9.45266 1 9.86205 1H10.25C10.6642 1 11 1.33579 11 1.75C11 2.16421 10.6642 2.5 10.25 2.5H9.86205C9.80357 2.5 9.74693 2.5205 9.702 2.55794L9.22187 1.98178L9.702 2.55794L8.75 3.35128V12.6487L9.702 13.4421C9.74693 13.4795 9.80357 13.5 9.86205 13.5H10.25C10.6642 13.5 11 13.8358 11 14.25C11 14.6642 10.6642 15 10.25 15H9.86205C9.45266 15 9.05623 14.8565 8.74173 14.5944L8 13.9763L7.25827 14.5944C6.94377 14.8565 6.54734 15 6.13795 15H5.75C5.33579 15 5 14.6642 5 14.25C5 13.8358 5.33579 13.5 5.75 13.5H6.13795C6.19643 13.5 6.25307 13.4795 6.298 13.4421L7.25 12.6487V3.35128L6.298 2.55794C6.25307 2.5205 6.19643 2.5 6.13795 2.5H5.75C5.33579 2.5 5 2.16421 5 1.75Z" fill="#fff"/>
</svg>

<svg xmlns="http://www.w3.org/2000/svg" width="32" height="32" fill="none" viewBox="0 0 16 16"><path fill="#181c1f" d="M0 0h16v16H0z"/><path fill="#fff" fill-rule="evenodd" d="M5 1.75A.75.75 0 0 1 5.75 1h.388c.41 0 .806.144 1.12.406L8 2.024l.742-.618A1.75 1.75 0 0 1 9.862 1h.388a.75.75 0 0 1 0 1.5h-.388a.25.25 0 0 0-.16.058l-.48-.576.48.576-.952.793v9.298l.952.793a.25.25 0 0 0 .16.058h.388a.75.75 0 0 1 0 1.5h-.388a1.75 1.75 0 0 1-1.12-.406L8 13.976l-.742.618a1.75 1.75 0 0 1-1.12.406H5.75a.75.75 0 0 1 0-1.5h.388a.25.25 0 0 0 .16-.058l.952-.793V3.35l-.952-.793a.25.25 0 0 0-.16-.058H5.75A.75.75 0 0 1 5 1.75" clip-rule="evenodd"/></svg>
